svg/RightHanded/grabbing.svg

<?xml version="1.0" encoding="UTF-8" standalone="no"?>
<!-- Created with Inkscape (http://www.inkscape.org/) -->

<svg
   xmlns:dc="http://purl.org/dc/elements/1.1/"
   xmlns:cc="http://creativecommons.org/ns#"
   xmlns:rdf="http://www.w3.org/1999/02/22-rdf-syntax-ns#"
   xmlns:svg="http://www.w3.org/2000/svg"
   xmlns="http://www.w3.org/2000/svg"
   xmlns:xlink="http://www.w3.org/1999/xlink"
   version="1.0"
   width="500"
   height="500"
   viewBox="0 0 1000 1000"
   id="page"
   xml:space="preserve"><metadata
     id="metadata14"><rdf:RDF><cc:Work
         rdf:about=""><dc:format>image/svg+xml</dc:format><dc:type
           rdf:resource="http://purl.org/dc/dcmitype/StillImage" /><dc:title></dc:title></cc:Work></rdf:RDF></metadata><defs
     id="defs38"><linearGradient
       id="linearGradient1307"><stop
         id="stop1309"
         style="stop-color:#999999;stop-opacity:1"
         offset="0" /><stop
         id="stop1311"
         style="stop-color:#555555;stop-opacity:1"
         offset="1" /></linearGradient><linearGradient
       x1="252.50525"
       y1="257.1369"
       x2="252.50525"
       y2="730.68188"
       id="linearGradient1313"
       xlink:href="#linearGradient1307"
       gradientUnits="userSpaceOnUse" /><linearGradient
       x1="252.50525"
       y1="257.1369"
       x2="252.50525"
       y2="730.68188"
       id="linearGradient1313-4"
       xlink:href="#linearGradient1307-8"
       gradientUnits="userSpaceOnUse" /><linearGradient
       id="linearGradient1307-8"><stop
         id="stop1309-9"
         style="stop-color:#999999;stop-opacity:1"
         offset="0" /><stop
         id="stop1311-4"
         style="stop-color:#555555;stop-opacity:1"
         offset="1" /></linearGradient><filter
       x="-0.23458232"
       y="-0.24567384"
       width="1.4691646"
       height="1.4913477"
       color-interpolation-filters="sRGB"
       id="filter3797"><feGaussianBlur
         id="feGaussianBlur3799"
         stdDeviation="46.426726" /></filter></defs><path
     d="m 915.55117,716.0794 c -13.42,-21.415 -21.23039,-66.98758 -25.00622,-91.90362 -4.5674,-30.13946 -7.13811,-33.41731 -4.4404,-57.30333 7.564,-18.136 16.38723,-31.44992 36.43923,-40.19078 12.41799,-6.22329 41.9467,-1.6953 53.19587,6.00003 10.11652,11.835 23.22852,30.16169 20.12852,59.33069 4.63603,-27.545 3.96752,-39.49474 13.79653,-51.87974 8.509,-10.722 23.1245,-22.47727 41.7485,-21.01927 16.075,1.259 41.12,10.95801 50.454,39.89901 3.5,10.851 3.616,39.744 -4,60.00001 9.391,-30.73701 45,-57.00001 68,-54.00001 27.614,3.602 49.031,11.75 51,46.00001 0.878,15.277 -14.034,48.847 -20,63 12.885,-14.541 48.451,-22.402 64,-16 17,7 23.787,28.084 27,57 2,18 -2.312,70.709 -13,103 -6.371,19.245 -23.041,53.521 -38,80 -9.595,16.984 -22.117,32.599 -37,45 -20.629,17.19 -41.905,25.447 -67.3,27.63 -30.605,2.633 -61.664,2.855 -92.207,-1.498 -40.45303,-5.766 -77.12203,-19.684 -111.24703,-44.924 -38.259,-28.298 -69.9,-88.91 -91.421,-125.804 -23.312,-39.966 -26.38,-64.939 -23.382,-93.646 1.976,-18.916 13.854,-43.91 26.671,-49.886 13.89,-6.478 32.76,-12.787 46.992,-6.309"
     transform="matrix(1.2,0,0,1.2,-761.01697,-281.00585)"
     id="path1402-7"
     style="opacity:0.15;fill:#111111;fill-opacity:1;stroke:none;filter:url(#filter3797)" /><path
     d="m 364.70371,464.22609 c -13.42,-21.415 -21.23039,-66.98758 -25.00622,-91.90362 -4.5674,-30.13945 -7.13811,-33.4173 -4.4404,-57.30332 7.564,-18.136 16.38723,-31.44992 36.43923,-40.19078 12.41799,-6.22329 41.9467,-1.6953 53.19587,6.00003 10.11652,11.835 23.22852,30.16169 20.12852,59.33069 4.636,-27.545 3.96752,-39.49474 13.79652,-51.87974 8.509,-10.722 23.12448,-22.47727 41.74848,-21.01927 16.075,1.259 41.12,10.95801 50.454,39.89901 3.5,10.851 3.616,39.744 -4,60 9.391,-30.737 45,-57 68,-54 27.614,3.602 49.031,11.75 51,46 0.878,15.277 -14.034,48.847 -20,63 12.885,-14.541 48.451,-22.402 64,-16 17,7 23.787,28.084 27,57 2,18 -2.312,70.709 -13,103 -6.371,19.245 -23.041,53.521 -38,80 -9.595,16.984 -22.117,32.599 -37,45 -20.629,17.19 -41.905,25.447 -67.3,27.63 -30.605,2.633 -61.664,2.855 -92.207,-1.498 -40.453,-5.766 -77.122,-19.684 -111.247,-44.924 -38.259,-28.298 -69.9,-88.91 -91.421,-125.804 -23.312,-39.966 -26.38,-64.939 -23.382,-93.646 1.976,-18.916 13.854,-43.91 26.671,-49.886 13.89,-6.478 32.76,-12.787 46.992,-6.309"
     id="path1402"
     style="opacity:0.75;fill:url(#linearGradient1313);fill-opacity:1;stroke:#000000;stroke-width:20;stroke-linecap:round;stroke-linejoin:round" /><path
     d="m 561.13978,507.79571 c 0,43.01075 -17.68817,94.37634 -17.68817,94.37634"
     id="path1391"
     style="opacity:0.75;fill:none;stroke:#000000;stroke-width:20;stroke-linecap:round;stroke-linejoin:round" /><path
     d="m 637.76344,553.17205 c -1.34409,30.91398 -29,66 -29,66"
     id="path1393"
     style="opacity:0.75;fill:none;stroke:#000000;stroke-width:20;stroke-linecap:round;stroke-linejoin:round" /><path
     d="m 472.76344,507.17205 c 8.06452,30.91398 -3,84 -3,84"
     id="path1395"
     style="opacity:0.75;fill:none;stroke:#000000;stroke-width:20;stroke-linecap:round;stroke-linejoin:round" /></svg>

<?xml version="1.0" encoding="UTF-8" standalone="no"?>
<!-- Created with Inkscape (http://www.inkscape.org/) -->
<svg
   xmlns:svg="http://www.w3.org/2000/svg"
   xmlns="http://www.w3.org/2000/svg"
   xmlns:xlink="http://www.w3.org/1999/xlink"
   version="1.0"
   width="500"
   height="500"
   viewBox="0 0 1000 1000"
   id="page"
   xml:space="preserve"><defs
     id="defs38"><linearGradient
       id="linearGradient1307"><stop
         id="stop1309"
         style="stop-color:#999999;stop-opacity:1"
         offset="0" /><stop
         id="stop1311"
         style="stop-color:#555555;stop-opacity:1"
         offset="1" /></linearGradient><linearGradient
       x1="252.50525"
       y1="257.1369"
       x2="252.50525"
       y2="730.68188"
       id="linearGradient1313"
       xlink:href="#linearGradient1307"
       gradientUnits="userSpaceOnUse" /></defs><path
     d="M 364.70371,464.22609 C 351.28371,442.81109 343.47332,397.23851 339.69749,372.32247 C 335.13009,342.18302 332.55938,338.90517 335.25709,315.01915 C 342.82109,296.88315 351.64432,283.56923 371.69632,274.82837 C 384.11431,268.60508 413.64302,273.13307 424.89219,280.8284 C 435.00871,292.6634 448.12071,310.99009 445.02071,340.15909 C 449.65671,312.61409 448.98823,300.66435 458.81723,288.27935 C 467.32623,277.55735 481.94171,265.80208 500.56571,267.26008 C 516.64071,268.51908 541.68571,278.21809 551.01971,307.15909 C 554.51971,318.01009 554.63571,346.90309 547.01971,367.15909 C 556.41071,336.42209 592.01971,310.15909 615.01971,313.15909 C 642.63371,316.76109 664.05071,324.90909 666.01971,359.15909 C 666.89771,374.43609 651.98571,408.00609 646.01971,422.15909 C 658.90471,407.61809 694.47071,399.75709 710.01971,406.15909 C 727.01971,413.15909 733.80671,434.24309 737.01971,463.15909 C 739.01971,481.15909 734.70771,533.86809 724.01971,566.15909 C 717.64871,585.40409 700.97871,619.68009 686.01971,646.15909 C 676.42471,663.14309 663.90271,678.75809 649.01971,691.15909 C 628.39071,708.34909 607.11471,716.60609 581.71971,718.78909 C 551.11471,721.42209 520.05571,721.64409 489.51271,717.29109 C 449.05971,711.52509 412.39071,697.60709 378.26571,672.36709 C 340.00671,644.06909 308.36571,583.45709 286.84471,546.56309 C 263.53271,506.59709 260.46471,481.62409 263.46271,452.91709 C 265.43871,434.00109 277.31671,409.00709 290.13371,403.03109 C 304.02371,396.55309 322.89371,390.24409 337.12571,396.72209"
     id="path1402"
     style="opacity:1;fill:url(#linearGradient1313);fill-opacity:1;stroke:#000000;stroke-width:20;stroke-linecap:round;stroke-linejoin:round" /><path
     d="M 561.13978,507.79571 C 561.13978,550.80646 543.45161,602.17205 543.45161,602.17205"
     id="path1391"
     style="opacity:1;fill:none;stroke:#000000;stroke-width:20;stroke-linecap:round;stroke-linejoin:round" /><path
     d="M 637.76344,553.17205 C 636.41935,584.08603 608.76344,619.17205 608.76344,619.17205"
     id="path1393"
     style="opacity:1;fill:none;stroke:#000000;stroke-width:20;stroke-linecap:round;stroke-linejoin:round" /><path
     d="M 472.76344,507.17205 C 480.82796,538.08603 469.76344,591.17205 469.76344,591.17205"
     id="path1395"
     style="opacity:1;fill:none;stroke:#000000;stroke-width:20;stroke-linecap:round;stroke-linejoin:round" /></svg>
